tenants/vtwonen/icons/channel_threads.svg

<svg fill="none" height="24" viewBox="0 0 24 24" width="24" xmlns="http://www.w3.org/2000/svg" xmlns:xlink="http://www.w3.org/1999/xlink"><clipPath id="a"><path d="m0 0h24v24h-24z"/></clipPath><g clip-path="url(#a)"><circle cx="12" cy="12" fill="#000" r="12"/><path d="m10.321 10.016c-.27-.18-1.166-.802-1.166-.802.756-1.081 1.753-1.502 3.132-1.502.975 0 1.803.327 2.394.948s.928 1.509 1.005 2.644c.328.138.6297.2993.905.484 1.109.745 1.719 1.86 1.719 3.137 0 2.716-2.226 5.075-6.256 5.075-3.46 0-7.054-2.013-7.054-8.006 0-5.96 3.482-7.994 7.044-7.994 1.646 0 5.506.243 6.956 5.036l-1.36.353c-1.124-3.415-3.477-3.959-5.634-3.959-3.565 0-5.582 2.171-5.582 6.79 0 4.143 2.254 6.343 5.63 6.343 2.777 0 4.847-1.443 4.847-3.556 0-1.438-1.208-2.127-1.27-2.127-.236 1.234-.868 3.31-3.644 3.31-1.618 0-3.013-1.118-3.013-2.582 0-2.09 1.984-2.847 3.55-2.847.586 0 1.294.04 1.663.114 0-.637-.54-1.728-1.9-1.728-1.25 0-1.566.405-1.967.868zm2.395 2.174c-2.04 0-2.304.87-2.304 1.416 0 .878 1.043 1.168 1.6 1.168 1.02 0 2.067-.282 2.232-2.423-.5007-.1168-1.014-.1709-1.528-.161z" fill="#fff"/><path clip-rule="evenodd" d="m19.0413 9.23653c.0167-.06208.0776-.33763.0943-.40273.0441-.1726.067-.33309.1339-.48146.0806-.17865.1963-.33157.3088-.48146.0822-.11355.1628-.21802.2617-.31189.0228-.0212.0426-.04391.0654-.06662.1157-.08175.2389-.162.3804-.22104.0821-.03483.1643-.06511.2495-.09993.1202-.05148.2358-.10447.3758-.14232.143-.03936.359-.03785.4975.00152.0547.01665.105.02422.1536.04542.2313.09538.3926.25435.5219.44815.0928.13929.1552.30432.216.4754.0152.04391.0167.09236.0274.14081.0076.03179.003.09235-.003.1196-.0077.0318-.0016.05754-.0122.08933-.0122.04694-.0259.10144-.0426.14686-.0259.08024-.0396.15746-.067.23619-.0593.16806-.1186.34065-.1871.49963-.1111.25435-.2145.49962-.356.72219-.0289.04692-.0502.09842-.0791.14382-.0183.0288-.0274.0591-.0441.0878-.0305.0576-.0624.1181-.0959.1726-.0243.0379-.0365.0803-.0624.1196-.0547.0863-.1034.1802-.1597.2665-.0654.0969-.1384.1862-.2084.2771-.0715.0878-.1689.162-.2495.2392-.0792.0772-.1598.1544-.2404.2331-.0502.047-.105.0909-.1476.1439-.0167.0136-.0335.0303-.0517.0439-.0472.0469-.1004.0954-.143.1468-.0168.0152-.0335.0303-.0487.0439-.035.0334-.07.0682-.0989.1045-.0213.0197-.0441.0409-.0685.0606-.0532.0696-.1262.1226-.1825.1907-.0198.0197-.0411.0379-.0609.0561-.0259.0318-.0532.0605-.0837.0893-.0121.0106-.0258.0212-.0395.0333-.0487.0651-.0913.1151-.1583.162-.0228.0242-.0988.106-.1217.1287-.0608.0727-.0563.0802-.1141.1332-.0654.0636-.1247.1333-.1901.1953-.0183.0182-.0594.0621-.0837.0591-.0396-.0258-.067-.0666-.102-.0999-.0623-.0636-.146-.1106-.2464-.1908-.0365-.0333-.0685-.0651-.1035-.0954-.0897-.112-.2175-.1953-.3073-.3089-.0274-.0363-.07-.062-.1004-.0999-.035-.0318-.07-.0636-.1035-.0954-.0395-.0499-.0912-.0954-.1354-.1393-.0243-.0212-.0304-.0302-.0532-.0499-.0137-.0182-.0304-.0424-.0426-.0576-.0259-.0378-.067-.0681-.0959-.1059-.0943-.1181-.2008-.2241-.2951-.3422-.0167-.0212-.0441-.0394-.0624-.0606-.073-.0953-.1613-.1801-.2312-.277-.0655-.0894-.1233-.1847-.1857-.2771-.0136-.0242-.0182-.0484-.0349-.0727-.032-.0499-.0639-.106-.0898-.1605-.0715-.1574-.1385-.3149-.2115-.4723-.0989-.21503-.2038-.42093-.2769-.66318-.0243-.08327-.038-.22256-.0289-.31643.0046-.04693-.003-.09538.0076-.13626 0-.0212 0-.04088.0015-.06207.0122-.06056.0229-.12264.0335-.18472.0502-.17108.1004-.33157.1704-.48297.0715-.15443.1719-.29069.2739-.41938.0274-.03937.0578-.07722.0912-.11053.1461-.1408.2891-.23921.5219-.29977.0639-.01817.1749-.03634.2556-.01817.0441.00908.0867.01514.1323.02422.1583.04996.2921.11507.4139.19834.213.14232.3666.3346.5066.54808.0669.09992.1415.20439.1932.31794.0578.11961.1019.2483.1476.38002.035.09387.0426.1938.07.29524" fill="#e40047" fill-rule="evenodd"/></g></svg>

<svg width="24" height="24" viewBox="0 0 24 24" fill="none" xmlns="http://www.w3.org/2000/svg">
<g clip-path="url(#clip0_2383_27717)">
<circle cx="12" cy="12" r="12" fill="black"/>
<path d="M10.321 10.016C10.051 9.836 9.155 9.214 9.155 9.214C9.911 8.133 10.908 7.712 12.287 7.712C13.262 7.712 14.09 8.039 14.681 8.66C15.272 9.281 15.609 10.169 15.686 11.304C16.014 11.442 16.3157 11.6033 16.591 11.788C17.7 12.533 18.31 13.648 18.31 14.925C18.31 17.641 16.084 20 12.054 20C8.594 20 5 17.987 5 11.994C5 6.034 8.482 4 12.044 4C13.69 4 17.55 4.243 19 9.036L17.64 9.389C16.516 5.974 14.163 5.43 12.006 5.43C8.441 5.43 6.424 7.601 6.424 12.22C6.424 16.363 8.678 18.563 12.054 18.563C14.831 18.563 16.901 17.12 16.901 15.007C16.901 13.569 15.693 12.88 15.631 12.88C15.395 14.114 14.763 16.19 11.987 16.19C10.369 16.19 8.974 15.072 8.974 13.608C8.974 11.518 10.958 10.761 12.524 10.761C13.11 10.761 13.818 10.801 14.187 10.875C14.187 10.238 13.647 9.147 12.287 9.147C11.037 9.147 10.721 9.552 10.32 10.015L10.321 10.016ZM12.716 12.19C10.676 12.19 10.412 13.06 10.412 13.606C10.412 14.484 11.455 14.774 12.012 14.774C13.032 14.774 14.079 14.492 14.244 12.351C13.7433 12.2342 13.23 12.1801 12.716 12.19Z" fill="white"/>
<path fill-rule="evenodd" clip-rule="evenodd" d="M19.0413 9.23653C19.058 9.17445 19.1189 8.8989 19.1356 8.8338C19.1797 8.6612 19.2026 8.50071 19.2695 8.35234C19.3501 8.17369 19.4658 8.02077 19.5783 7.87088C19.6605 7.75733 19.7411 7.65286 19.84 7.55899C19.8628 7.53779 19.8826 7.51508 19.9054 7.49237C20.0211 7.41062 20.1443 7.33037 20.2858 7.27133C20.3679 7.2365 20.4501 7.20622 20.5353 7.1714C20.6555 7.11992 20.7711 7.06693 20.9111 7.02908C21.0541 6.98972 21.2701 6.99123 21.4086 7.0306C21.4633 7.04725 21.5136 7.05482 21.5622 7.07602C21.7935 7.1714 21.9548 7.33037 22.0841 7.52417C22.1769 7.66346 22.2393 7.82849 22.3001 7.99957C22.3153 8.04348 22.3168 8.09193 22.3275 8.14038C22.3351 8.17217 22.3305 8.23273 22.3245 8.25998C22.3168 8.29178 22.3229 8.31752 22.3123 8.34931C22.3001 8.39625 22.2864 8.45075 22.2697 8.49617C22.2438 8.57641 22.2301 8.65363 22.2027 8.73236C22.1434 8.90042 22.0841 9.07301 22.0156 9.23199C21.9045 9.48634 21.8011 9.73161 21.6596 9.95418C21.6307 10.0011 21.6094 10.0526 21.5805 10.098C21.5622 10.1268 21.5531 10.1571 21.5364 10.1858C21.5059 10.2434 21.474 10.3039 21.4405 10.3584C21.4162 10.3963 21.404 10.4387 21.3781 10.478C21.3234 10.5643 21.2747 10.6582 21.2184 10.7445C21.153 10.8414 21.08 10.9307 21.01 11.0216C20.9385 11.1094 20.8411 11.1836 20.7605 11.2608C20.6813 11.338 20.6007 11.4152 20.5201 11.4939C20.4699 11.5409 20.4151 11.5848 20.3725 11.6378C20.3558 11.6514 20.339 11.6681 20.3208 11.6817C20.2736 11.7286 20.2204 11.7771 20.1778 11.8285C20.161 11.8437 20.1443 11.8588 20.1291 11.8724C20.0941 11.9058 20.0591 11.9406 20.0302 11.9769C20.0089 11.9966 19.9861 12.0178 19.9617 12.0375C19.9085 12.1071 19.8355 12.1601 19.7792 12.2282C19.7594 12.2479 19.7381 12.2661 19.7183 12.2843C19.6924 12.3161 19.6651 12.3448 19.6346 12.3736C19.6225 12.3842 19.6088 12.3948 19.5951 12.4069C19.5464 12.472 19.5038 12.522 19.4368 12.5689C19.414 12.5931 19.338 12.6749 19.3151 12.6976C19.2543 12.7703 19.2588 12.7778 19.201 12.8308C19.1356 12.8944 19.0763 12.9641 19.0109 13.0261C18.9926 13.0443 18.9515 13.0882 18.9272 13.0852C18.8876 13.0594 18.8602 13.0186 18.8252 12.9853C18.7629 12.9217 18.6792 12.8747 18.5788 12.7945C18.5423 12.7612 18.5103 12.7294 18.4753 12.6991C18.3856 12.5871 18.2578 12.5038 18.168 12.3902C18.1406 12.3539 18.098 12.3282 18.0676 12.2903C18.0326 12.2585 17.9976 12.2267 17.9641 12.1949C17.9246 12.145 17.8729 12.0995 17.8287 12.0556C17.8044 12.0344 17.7983 12.0254 17.7755 12.0057C17.7618 11.9875 17.7451 11.9633 17.7329 11.9481C17.707 11.9103 17.6659 11.88 17.637 11.8422C17.5427 11.7241 17.4362 11.6181 17.3419 11.5C17.3252 11.4788 17.2978 11.4606 17.2795 11.4394C17.2065 11.3441 17.1182 11.2593 17.0483 11.1624C16.9828 11.073 16.925 10.9777 16.8626 10.8853C16.849 10.8611 16.8444 10.8369 16.8277 10.8126C16.7957 10.7627 16.7638 10.7066 16.7379 10.6521C16.6664 10.4947 16.5994 10.3372 16.5264 10.1798C16.4275 9.96477 16.3226 9.75887 16.2495 9.51662C16.2252 9.43335 16.2115 9.29406 16.2206 9.20019C16.2252 9.15326 16.2176 9.10481 16.2282 9.06393C16.2282 9.04273 16.2282 9.02305 16.2297 9.00186C16.2419 8.9413 16.2526 8.87922 16.2632 8.81714C16.3134 8.64606 16.3636 8.48557 16.4336 8.33417C16.5051 8.17974 16.6055 8.04348 16.7075 7.91479C16.7349 7.87542 16.7653 7.83757 16.7987 7.80426C16.9448 7.66346 17.0878 7.56505 17.3206 7.50449C17.3845 7.48632 17.4955 7.46815 17.5762 7.48632C17.6203 7.4954 17.6629 7.50146 17.7085 7.51054C17.8668 7.5605 18.0006 7.62561 18.1224 7.70888C18.3354 7.8512 18.489 8.04348 18.629 8.25696C18.6959 8.35688 18.7705 8.46135 18.8222 8.5749C18.88 8.69451 18.9241 8.8232 18.9698 8.95492C19.0048 9.04879 19.0124 9.14872 19.0398 9.25016" fill="#E40047"/>
</g>
<defs>
<clipPath id="clip0_2383_27717">
<rect width="24" height="24" fill="white"/>
</clipPath>
</defs>
</svg>
